Collapse/img/game_icons/icon_valorant_active.svg

<svg width="24" height="20" viewBox="0 0 24 20" fill="none" xmlns="http://www.w3.org/2000/svg">
<path d="M24 9.62038V0.153387C24 0.00736626 23.8201 -0.053476 23.7241 0.0560394L13.5292 12.9789C13.4453 13.0762 13.5172 13.2344 13.6492 13.2344H21.0135C21.2174 13.2344 21.3973 13.137 21.5172 12.9789L23.8441 10.0341C23.94 9.92459 24 9.77857 24 9.62038ZM0.155921 10.0463L7.8081 19.7566C7.92804 19.9148 8.11994 20 8.32384 20H15.6882C15.8201 20 15.8921 19.854 15.8081 19.7566L0.275862 0.0682085C0.179909 -0.0413069 0 0.0195354 0 0.165556V9.63255C0.011994 9.77857 0.0599695 9.92459 0.155921 10.0463Z" fill="#D34145"/>
</svg>

<svg width="24" height="20" fill="none" xmlns="http://www.w3.org/2000/svg"><path d="M24 9.62V.153c0-.146-.18-.206-.276-.097L13.53 12.979c-.084.097-.012.255.12.255h7.365a.628.628 0 00.503-.255l2.327-2.945A.63.63 0 0024 9.62zm-23.844.426l7.652 9.71a.64.64 0 00.516.244h7.364c.132 0 .204-.146.12-.243L.276.068C.18-.042 0 .02 0 .166v9.467a.76.76 0 00.156.413z" fill="#D34145"/></svg>
